public/section1/Awan1.svg

<svg width="453" height="357" viewBox="0 0 453 357" fill="none" xmlns="http://www.w3.org/2000/svg">
<path d="M234.352 75.8171C255.561 61.3953 284.096 55.7758 305.728 61.6257L306.753 61.9128C321.595 66.2323 332.25 75.4785 338.495 89.4225L338.789 90.0905C343.071 100.006 343.289 109.817 339.44 118.514V118.515C337.897 122.016 335.69 125.21 332.969 128.042C334.106 122.09 332.621 116.079 329.571 110.702C326.228 104.809 320.989 99.6456 315.179 96.0925C296.6 84.7267 271.953 85.9088 253.828 99.028C248.562 102.837 243.136 108.851 238.951 115.7C234.898 122.333 231.981 129.791 231.526 136.833L231.49 137.513C231.214 144.125 233.158 149.939 237.139 154.531C229.054 156.591 221.906 160.912 215.337 165.431C175.751 192.673 144.185 231.649 116.367 265.976C85.4445 304.147 45.5522 333.262 4.06799 347.932H4.06702C-0.528782 349.562 -5.19631 350.985 -9.92126 352.212C-0.787228 348.529 8.15184 344.031 16.8278 338.709L17.8873 338.054C77.533 300.949 118.071 237.032 150.582 185.778L150.577 185.774C154.398 179.755 158.182 173.494 161.883 167.287L165.56 161.103C184.489 129.26 203.986 96.476 234.352 75.8171Z" fill="url(#paint0_linear_24_5406)" stroke="#FCF0D6"/>
<path d="M242.615 0.866211C258.108 -0.63997 273.032 2.75136 288.966 6.35156C299.385 8.71497 310.177 11.155 321.075 12.0576C329.504 12.7529 336.213 9.5403 342.53 6.51465C346.723 4.50737 350.617 2.63665 354.802 1.95801L355.208 1.89648C363.716 0.671666 372.592 0.753833 381.605 2.14551C401.375 5.1947 417.648 13.9702 427.461 26.7842C438.245 40.8616 437.884 56.7484 437.483 73.7773C437.25 83.7107 437.013 94.0572 439.074 104.361V104.362C440.152 109.721 442.379 114.402 444.656 118.841L445.632 120.729C448.355 125.975 450.888 130.84 451.558 136.264C452.673 145.318 450.717 155.775 446.163 165.116L445.714 166.017C438.357 180.45 423.847 191.428 407.876 194.662C399.438 196.356 390.888 194.962 381.729 193.46H381.73C374.593 192.279 367.148 191.069 359.61 191.422H359.609C348.865 191.946 341.768 197.362 335.207 202.82L333.9 203.911C329.567 207.533 325.518 210.908 320.563 213.007L320.08 213.206C310.001 217.254 295.004 216.276 279.931 210.488C275.122 208.643 272.699 206.265 271.371 203.167C270.02 200.015 269.778 196.076 269.477 191.01V191.008L269.364 189.182C269.268 187.643 269.158 186.061 268.985 184.434L268.874 183.452C267.965 175.84 265.522 170.383 262.148 165.886C258.786 161.404 254.508 157.89 249.979 154.167H249.978C248.494 152.95 246.952 151.69 245.394 150.33L245.391 150.327L245.054 150.031C241.636 146.936 240.081 142.967 240.285 137.872C240.522 132.312 243.016 125.96 246.564 120.191C250 114.606 254.389 109.621 258.575 106.481L258.98 106.184C274.243 95.1236 294.973 94.1082 310.53 103.623V103.624C314.358 105.968 318.567 109.873 321.351 114.376C324.137 118.883 325.45 123.905 323.664 128.546L323.663 128.547C322.187 132.388 318.892 135.494 314.896 137.311C310.9 139.126 306.252 139.629 302.116 138.323H302.115C299.772 137.592 297.311 138.868 296.561 141.194L296.56 141.198C295.828 143.525 297.104 146.002 299.431 146.753L299.433 146.754C304.701 148.432 310.402 148.169 315.575 146.474C316.627 147.067 317.926 147.241 319.163 146.817L319.165 146.816C332.383 142.248 342.458 133.485 347.484 122.101C352.293 111.218 352.048 98.5993 346.854 86.5967C339.667 69.973 326.626 58.5138 309.166 53.4268V53.4258C284.973 46.4011 252.898 52.4727 229.33 68.5137C197.317 90.2847 177.248 124.059 157.909 156.596V156.597C153.079 164.724 148.087 173.127 143.046 181.062C110.944 231.672 71.0518 294.53 13.1485 330.562C-19.5056 350.881 -55.9501 359.03 -92.5586 354.356C-97.0551 353.427 -101.535 352.332 -105.965 351.071H-105.964C-133.117 343.278 -157.2 326.684 -177.556 301.695H-177.512L-178.167 300.881C-179.514 299.209 -180.858 297.513 -182.204 295.801L-186.256 290.629C-197.406 276.367 -208.966 261.545 -223.594 250.177H-223.595C-245.123 233.459 -272.721 230.699 -300.251 241.631C-287.355 231.043 -270.247 222.805 -252.653 223.162H-252.652C-236.953 223.443 -219.022 229.122 -203.482 238.757C-190.728 246.664 -181.836 257.767 -172.353 269.634V269.635C-166.777 276.608 -160.997 283.842 -154.311 290.394V290.395C-141.964 302.525 -128.83 311.08 -115.259 315.788C-101.921 320.435 -88.6599 322.743 -75.5117 322.743C-46.1789 322.743 -17.5104 311.195 10.1348 288.241C50.8372 254.448 76.537 206.29 88.2207 180.605C89.3283 178.174 90.4283 175.742 91.5254 173.311L94.8155 166.017C98.3792 158.123 101.942 150.232 105.571 142.374C116.061 119.664 128.904 93.2134 144.554 69.0654L144.555 69.0645C145.124 68.1792 145.954 67.298 146.878 66.3232L146.88 66.3213C147.874 65.2609 149.052 64.0169 150.044 62.5293C160.876 46.4963 174.605 36.7848 190.6 25.4717L191.166 25.0732C207.829 13.2925 224.197 2.65018 242.615 0.866211Z" fill="url(#paint1_linear_24_5406)" stroke="#FCF0D6"/>
<path d="M-6.90012 32.318C8.45261 29.6165 23.5776 34.7188 35.8206 43.8561C47.875 52.8527 57.0922 65.7304 60.9436 78.8141L61.1233 79.4371C63.8417 89.1279 70.2734 96.1052 76.3899 102.754C81.1625 107.943 85.6195 112.784 88.4456 118.749C91.8716 125.981 93.5165 132.219 93.3977 138.402C93.2789 144.585 91.3955 150.76 87.6888 157.868C87.139 158.914 87.0587 160.077 87.3645 161.132C87.1739 161.557 86.9847 161.977 86.7825 162.396L87.2327 162.614L86.7815 162.396L86.7766 162.408C84.5781 167.271 82.397 172.115 80.1829 176.96V176.961C68.786 201.984 43.8125 248.795 4.48367 281.461C-33.0735 312.642 -72.3768 321.355 -112.349 307.451C-124.655 303.167 -136.684 295.319 -148.116 284.086C-153.631 278.672 -158.602 272.634 -163.398 266.666L-165.444 264.114C-174.912 252.283 -184.754 239.974 -198.826 231.246L-200.228 230.39C-213.986 222.133 -229.438 216.721 -243.923 214.96C-229.376 210.902 -214.443 210.268 -199.881 213.016C-199.592 213.163 -199.297 213.284 -198.967 213.371L-198.956 213.374C-184.042 216.951 -174.178 221.42 -165.615 227.65C-157.037 233.892 -149.745 241.914 -139.977 252.656C-135.971 257.071 -131.501 261.999 -126.382 267.394L-124.148 269.735C-106.941 287.695 -88.4534 296.696 -67.6462 297.166H-67.6355C-67.3567 297.166 -67.0727 297.169 -66.7849 297.173C-66.4983 297.178 -66.207 297.182 -65.9196 297.182C-47.0102 297.182 -28.3949 290.108 -13.322 277.178C15.556 252.399 31.4927 209.852 27.3147 168.807V168.806L27.2796 168.545C27.2556 168.4 27.2224 168.26 27.1848 168.123C34.0427 161.604 38.8864 152.758 40.1868 143.799L40.303 142.922C41.419 133.436 38.5917 124.924 32.0862 118.334C26.9877 113.167 19.388 109.834 11.26 108.594C3.12901 107.354 -5.58263 108.2 -12.9343 111.45C-23.5542 116.142 -29.3292 125.219 -28.7517 136.362V136.363C-28.6204 138.801 -26.6062 140.66 -24.1003 140.548V140.549L-24.0954 140.548C-21.6525 140.417 -19.7968 138.332 -19.9089 135.897L-19.9099 135.893L-19.9284 135.452C-20.0749 130.932 -18.7278 127.559 -16.7419 125.032C-14.6837 122.413 -11.9179 120.679 -9.34933 119.542C-3.76477 117.072 3.15279 116.417 9.6282 117.345C16.1089 118.274 22.0747 120.779 25.7952 124.547H25.7962C31.5473 130.364 32.089 137.167 31.5335 141.889C30.4532 151.055 24.1832 160.683 15.9456 165.802C10.8083 168.995 5.69233 168.942 -0.402069 168.858H-0.403046C-5.47497 168.792 -10.7865 168.72 -16.4577 170.667H-16.4597C-21.3187 172.348 -25.2498 174.534 -29.0114 176.631C-35.4398 180.212 -40.8332 183.234 -49.3943 182.564C-54.3403 182.17 -59.8941 180.507 -64.7478 177.729C-69.4514 175.037 -73.4619 171.318 -75.6482 166.736L-75.8542 166.29C-76.9845 163.758 -77.0856 161.108 -76.6355 158.32C-76.1836 155.521 -75.1835 152.62 -74.1394 149.588C-71.8764 143.026 -69.1851 135.306 -73.2995 128.064L-73.5007 127.719C-76.8308 122.164 -78.9688 115.97 -79.7566 110.296C-80.5463 104.607 -79.9715 99.5081 -77.9626 96.0905L-77.9616 96.0914C-73.2011 88.0301 -69.173 83.3404 -65.4773 80.3043C-61.7851 77.2712 -58.4003 75.8666 -54.8552 74.402L-53.615 73.8893L-53.6736 73.8698C-49.1921 71.9929 -44.5013 69.7776 -39.3415 64.4479L-38.7946 63.8737C-34.8615 59.6861 -32.967 55.1094 -31.1706 50.7682C-29.434 46.5852 -27.8576 42.8012 -24.4939 39.6422C-21.2415 36.5879 -16.2684 34.0764 -7.73703 32.4703L-6.90012 32.318Z" fill="url(#paint2_linear_24_5406)" stroke="#FCF0D6"/>
<path d="M18.8365 174.268C21.0274 210.06 6.6411 247.595 -17.8861 269.423L-19.0707 270.458C-32.9539 282.372 -50.1205 288.702 -67.4418 288.322C-84.2861 287.942 -99.5842 281.071 -114.057 267.31C-102.852 274.682 -90.3395 279.913 -75.0804 279.913C-74.0594 279.913 -73.0185 279.897 -71.9594 279.847L-71.9603 279.846C-50.9916 278.89 -32.3043 268.889 -19.3451 251.722C-4.04475 231.465 1.78651 203.155 -4.04236 177.697C-2.88875 177.688 -1.73147 177.687 -0.550171 177.701H-0.549194C5.33805 177.766 12.0496 177.822 18.8365 174.268Z" fill="url(#paint3_linear_24_5406)" stroke="#FCF0D6"/>
<defs>
<linearGradient id="paint0_linear_24_5406" x1="-17.347" y1="206.662" x2="342.673" y2="206.662" gradientUnits="userSpaceOnUse">
<stop stop-color="#FCF0D6"/>
<stop offset="1" stop-color="#FFC446"/>
</linearGradient>
<linearGradient id="paint1_linear_24_5406" x1="-303" y1="178.069" x2="452.365" y2="178.069" gradientUnits="userSpaceOnUse">
<stop stop-color="#FCF0D6"/>
<stop offset="1" stop-color="#FFC446"/>
</linearGradient>
<linearGradient id="paint2_linear_24_5406" x1="-246.482" y1="172.731" x2="93.9036" y2="172.731" gradientUnits="userSpaceOnUse">
<stop stop-color="#FCF0D6"/>
<stop offset="1" stop-color="#FFC446"/>
</linearGradient>
<linearGradient id="paint3_linear_24_5406" x1="-118.327" y1="231.146" x2="19.5594" y2="231.146" gradientUnits="userSpaceOnUse">
<stop stop-color="#FCF0D6"/>
<stop offset="1" stop-color="#FFC446"/>
</linearGradient>
</defs>
</svg>

<svg xmlns="http://www.w3.org/2000/svg" width="453" height="357" fill="none" viewBox="0 0 453 357"><path fill="url(#a)" stroke="#fcf0d6" d="M234.35 75.82c21.21-14.42 49.75-20.04 71.38-14.19l1.02.28c14.85 4.32 25.5 13.57 31.75 27.51l.29.67c4.28 9.92 4.5 19.73.65 28.42v.01c-1.54 3.5-3.75 6.69-6.47 9.52 1.14-5.95-.35-11.96-3.4-17.34-3.34-5.89-8.58-11.05-14.39-14.61-18.58-11.36-43.23-10.18-61.35 2.94-5.27 3.81-10.69 9.82-14.88 16.67-4.05 6.63-6.97 14.09-7.42 21.13l-.04.68c-.28 6.62 1.67 12.43 5.65 17.02-8.09 2.06-15.23 6.38-21.8 10.9-39.59 27.24-71.15 66.22-98.97 100.55-30.93 38.17-70.82 67.28-112.3 81.95-4.6 1.63-9.27 3.06-13.99 4.28 9.13-3.68 18.07-8.18 26.75-13.5l1.06-.66c59.64-37.1 100.18-101.02 132.69-152.27v-.01c3.82-6.02 7.6-12.28 11.3-18.48l3.68-6.19c18.93-31.84 38.43-64.62 68.79-85.28Z"/><path fill="url(#b)" stroke="#fcf0d6" d="M242.62.87c15.49-1.51 30.41 1.88 46.35 5.48 10.41 2.36 21.21 4.8 32.1 5.71 8.43.69 15.14-2.52 21.46-5.55 4.19-2 8.09-3.87 12.27-4.55l.41-.06c8.51-1.23 17.38-1.15 26.4.25 19.77 3.04 36.04 11.82 45.85 24.63 10.79 14.08 10.42 29.97 10.02 47-.23 9.93-.47 20.28 1.59 30.58 1.08 5.36 3.31 10.04 5.59 14.48l.97 1.89c2.73 5.24 5.26 10.11 5.93 15.53 1.11 9.06-.84 19.52-5.4 28.86l-.45.9c-7.35 14.43-21.86 25.41-37.83 28.64-8.44 1.7-16.99.3-26.15-1.2-7.14-1.18-14.58-2.39-22.12-2.04-10.74.53-17.84 5.94-24.4 11.4l-1.31 1.09c-4.33 3.62-8.38 7-13.34 9.1l-.48.2c-10.08 4.04-25.08 3.07-40.15-2.72-4.81-1.85-7.23-4.23-8.56-7.32-1.35-3.16-1.59-7.09-1.89-12.16l-.12-1.83c-.09-1.54-.2-3.12-.37-4.75l-.12-.98c-.91-7.61-3.35-13.07-6.72-17.56-3.36-4.49-7.64-8-12.17-11.72-1.49-1.22-3.03-2.48-4.59-3.84l-.34-.3c-3.41-3.09-4.97-7.06-4.77-12.16.24-5.56 2.74-11.91 6.28-17.68 3.44-5.58 7.83-10.57 12.01-13.71l.41-.3c15.26-11.06 35.99-12.07 51.55-2.56 3.83 2.35 8.04 6.25 10.82 10.76 2.79 4.5 4.1 9.53 2.31 14.17-1.47 3.84-4.77 6.94-8.76 8.76-4 1.82-8.65 2.32-12.78 1.01-2.35-.73-4.81.55-5.56 2.87v.01c-.73 2.33.54 4.8 2.87 5.55 5.27 1.68 10.97 1.42 16.14-.28 1.06.6 2.36.77 3.59.35h.01c13.21-4.57 23.29-13.33 28.31-24.72 4.81-10.88 4.57-23.5-.63-35.5-7.18-16.63-20.22-28.09-37.68-33.17-24.2-7.03-56.27-.96-79.84 15.08-32.01 21.77-52.08 55.55-71.42 88.09-4.83 8.12-9.82 16.53-14.86 24.46-32.11 50.61-72 113.47-129.9 149.5-32.66 20.32-69.1 28.47-105.71 23.8-4.5-.93-8.97-2.03-13.41-3.29h.01c-27.16-7.79-51.24-24.39-71.6-49.38h.05l-.66-.81c-1.34-1.67-2.69-3.37-4.03-5.08l-4.06-5.17c-11.15-14.26-22.71-29.08-37.33-40.45-21.53-16.72-49.13-19.48-76.66-8.55 12.89-10.59 30-18.82 47.6-18.47 15.7.28 33.63 5.96 49.17 15.6 12.75 7.9 21.64 19.01 31.13 30.87 5.57 6.98 11.35 14.21 18.04 20.76 12.35 12.13 25.48 20.69 39.05 25.4 13.34 4.65 26.6 6.95 39.75 6.95 29.33 0 58-11.55 85.64-34.5 40.71-33.79 66.41-81.95 78.09-107.64 1.11-2.43 2.21-4.86 3.31-7.29l3.29-7.29c3.56-7.9 7.12-15.79 10.75-23.65 10.49-22.71 23.33-49.16 38.98-73.3l.01-.01c.56-.88 1.39-1.76 2.32-2.74.99-1.06 2.17-2.3 3.16-3.79 10.84-16.03 24.56-25.75 40.56-37.06l.57-.4C207.83 13.29 224.2 2.65 242.62.87Z"/><path fill="url(#c)" stroke="#fcf0d6" d="M-6.9 32.32c15.35-2.7 30.48 2.4 42.72 11.54 12.06 8.99 21.27 21.87 25.12 34.95l.18.63c2.72 9.69 9.15 16.67 15.27 23.31 4.77 5.19 9.23 10.03 12.06 16 3.42 7.23 5.07 13.47 4.95 19.65-.12 6.19-2 12.36-5.71 19.47a4.38 4.38 0 0 0-.33 3.26c-.19.43-.38.85-.58 1.27l.45.21-.45-.21v.01c-2.2 4.86-4.38 9.71-6.6 14.55-11.39 25.02-36.37 71.83-75.7 104.5-37.55 31.18-76.86 39.9-116.83 25.99-12.31-4.28-24.33-12.13-35.77-23.36-5.51-5.42-10.48-11.46-15.28-17.42l-2.04-2.56c-9.47-11.83-19.31-24.14-33.39-32.86l-1.4-.86c-13.76-8.26-29.21-13.67-43.69-15.43 14.54-4.06 29.48-4.69 44.04-1.94.29.14.58.26.91.35h.01c14.92 3.58 24.78 8.05 33.34 14.28 8.58 6.24 15.87 14.26 25.64 25.01 4.01 4.41 8.48 9.34 13.6 14.73l2.23 2.35c17.21 17.95 35.7 26.96 56.5 27.43h.87c.28.01.57.01.86.01 18.91 0 37.53-7.07 52.6-20 28.88-24.78 44.81-67.33 40.63-108.37l-.03-.27c-.02-.14-.06-.28-.1-.42 6.86-6.52 11.71-15.36 13.01-24.32l.11-.88c1.12-9.48-1.71-18-8.21-24.59-5.1-5.16-12.7-8.5-20.83-9.74s-16.84-.39-24.19 2.86c-10.62 4.69-16.4 13.77-15.82 24.91.13 2.44 2.14 4.3 4.65 4.19 2.45-.13 4.3-2.22 4.19-4.65v-.01l-.02-.44c-.14-4.52 1.2-7.89 3.19-10.42 2.06-2.62 4.82-4.35 7.39-5.49 5.59-2.47 12.5-3.12 18.98-2.2 6.48.93 12.44 3.44 16.17 7.21 5.75 5.81 6.29 12.62 5.73 17.34-1.08 9.17-7.35 18.79-15.58 23.91-5.14 3.2-10.26 3.14-16.35 3.06-5.07-.07-10.39-.14-16.06 1.81-4.86 1.68-8.79 3.86-12.55 5.96-6.43 3.58-11.82 6.6-20.38 5.93-4.95-.39-10.5-2.05-15.36-4.83-4.7-2.69-8.71-6.41-10.9-10.99l-.2-.45c-1.13-2.53-1.24-5.18-.79-7.97.46-2.8 1.46-5.7 2.5-8.73 2.26-6.56 4.95-14.28.84-21.53l-.2-.34c-3.33-5.56-5.47-11.75-6.26-17.42-.79-5.69-.21-10.79 1.8-14.21 4.76-8.06 8.79-12.75 12.48-15.79 3.69-3.03 7.08-4.43 10.62-5.9l1.24-.51-.05-.02c4.48-1.88 9.17-4.09 14.33-9.42l.55-.58c3.93-4.18 5.82-8.76 7.62-13.1 1.74-4.18 3.31-7.97 6.68-11.13 3.25-3.05 8.22-5.56 16.75-7.17z"/><path fill="url(#d)" stroke="#fcf0d6" d="M18.84 174.27c2.19 35.79-12.2 73.32-36.73 95.15l-1.18 1.04c-13.88 11.91-31.05 18.24-48.37 17.86-16.85-.38-32.14-7.25-46.62-21.01 11.21 7.37 23.72 12.6 38.98 12.6 1.02 0 2.06-.01 3.12-.06 20.97-.96 39.66-10.96 52.61-28.13 15.31-20.25 21.14-48.56 15.31-74.02 1.15-.01 2.31-.01 3.49 0 5.89.07 12.6.12 19.39-3.43Z"/><defs><linearGradient id="a" x1="-17.35" x2="342.67" y1="206.66" y2="206.66" gradientUnits="userSpaceOnUse"><stop stop-color="#fcf0d6"/><stop offset="1" stop-color="#ffc446"/></linearGradient><linearGradient id="b" x1="-303" x2="452.37" y1="178.07" y2="178.07" gradientUnits="userSpaceOnUse"><stop stop-color="#fcf0d6"/><stop offset="1" stop-color="#ffc446"/></linearGradient><linearGradient id="c" x1="-246.48" x2="93.9" y1="172.73" y2="172.73" gradientUnits="userSpaceOnUse"><stop stop-color="#fcf0d6"/><stop offset="1" stop-color="#ffc446"/></linearGradient><linearGradient id="d" x1="-118.33" x2="19.56" y1="231.15" y2="231.15" gradientUnits="userSpaceOnUse"><stop stop-color="#fcf0d6"/><stop offset="1" stop-color="#ffc446"/></linearGradient></defs></svg>
